X: 1
T: Sweet Water
T: D\^wr Gl\^an
R: hornpipe, reel
O: Wales
Z: 1997 by John Chambers <jc:trillian.mit.edu>
M: C|
L: 1/8
K: Gm
GA \
[| "Gm"B2Bc "D7"A2AB \
| "Gm"G2GA BABG \
| "F"A2AB "Eb"G2GA \
| "D7"^F2D2 F2A2 \
| "Gm"B2Bc "D7"A2AB |
| "Gm"G2GA "Eb"BABc \
| "D7"d2de dcBA \
| "Gm"G4- G2 "F7"Bc \
|]| "Bb"d2de "F7"c2cd \
| "Gm"B2BA "Eb"Bcde |
| "Bb"f2d2 "F7"e2c2 \
| "Bb"d2B2- "Eb"B2Bc \
| "Bb"d2de "F7"c2cd \
| "Gm"B2BA "Eb"Bcde \
| "Bb"f2d2 "F7"e2c2 \
| "D7"d2de dcBA |]
